
ServerOptions.outDevices
ServerOptions.devices
Server.default.options.outDevice
MIDIFunc.trace

MIDIClient.sources[0].uid
MIDIIn.findPort("IAC Driver", "Bus 1").uid
MIDIClient.init;
MIDIClient.sources[0].uid